icons/svg/folder-upload.svg

<svg xmlns="http://www.w3.org/2000/svg" version="1.1" baseProfile="full" width="24" height="24" viewBox="0 0 24.00 24.00" xml:space="preserve"><path fill="#000" fill-opacity="1" stroke-width=".2" stroke-linejoin="round" d="M20 6c1.104 0 2 .896 2 2v10c0 1.104-.896 2-2 2H4c-1.105 0-2-.896-2-2l.01-12c0-1.104.885-2 1.99-2h6l2 2h8zm-9.25 7H14v4h2v-4h3.25L15 8.75"/></svg>

﻿<?xml version="1.0" encoding="utf-8"?>
<!DOCTYPE svg PUBLIC "-//W3C//DTD SVG 1.1//EN" "http://www.w3.org/Graphics/SVG/1.1/DTD/svg11.dtd">
<svg xmlns="http://www.w3.org/2000/svg" xmlns:xlink="http://www.w3.org/1999/xlink" version="1.1" baseProfile="full" width="24" height="24" viewBox="0 0 24.00 24.00" enable-background="new 0 0 24.00 24.00" xml:space="preserve">
	<path fill="#000000" fill-opacity="1" stroke-width="0.2" stroke-linejoin="round" d="M 20,6C 21.1035,6 22,6.896 22,8L 22,18C 22,19.104 21.1035,20 20,20L 4,20C 2.895,20 2,19.104 2,18L 2.00977,6C 2.00977,4.896 2.895,4 4,4L 10,4L 12,6L 20,6 Z M 10.75,13L 14,13L 14,17L 16,17L 16,13L 19.25,13L 15,8.75"/>
</svg>
